app/style/graphics/spriteSheets/characters/pacman/pacman_left.svg

<?xml version="1.0"?>
<svg width="64" height="16" xmlns="http://www.w3.org/2000/svg" xmlns:svg="http://www.w3.org/2000/svg">
 <g class="layer">
  <title>Layer 1</title>
  <path d="m5,2l-2,0l0,1l-1,0l0,2l-1,0l0,5l1,0l0,2l1,0l0,1l2,0l0,1l5,0l0,-1l2,0l0,-1l1,0l0,-2l1,0l0,-5l-1,0l0,-2l-1,0l0,-1l-2,0l0,-1l-5,0l0,1z" fill="#FFFF00" id="svg_1"/>
  <path d="m30,10l0,-5l-1,0l0,-2l-1,0l0,-1l-2,0l0,-1l-5,0l0,1l-2,0l0,1l-1,0l0,2l2,0l0,1l3,0l0,1l3,0l0,1l-3,0l0,1l-3,0l0,1l-2,0l0,2l1,0l0,1l2,0l0,1l5,0l0,-1l2,0l0,-1l1,0l0,-2l1,0z" fill="#FFFF00" id="svg_2"/>
  <path d="m46,10l0,-5l-1,0l0,-2l-1,0l0,-1l-2,0l0,-1l-5,0l0,2l1,0l0,1l1,0l0,1l1,0l0,1l1,0l0,1l1,0l0,1l-1,0l0,1l-1,0l0,1l-1,0l0,1l-1,0l0,1l-1,0l0,2l5,0l0,-1l2,0l0,-1l1,0l0,-2l1,0z" fill="#FFFF00" id="svg_3"/>
  <path d="m62,10l0,-5l-1,0l0,-2l-1,0l0,-1l-2,0l0,-1l-5,0l0,1l-2,0l0,1l-1,0l0,2l2,0l0,1l3,0l0,1l3,0l0,1l-3,0l0,1l-3,0l0,1l-2,0l0,2l1,0l0,1l2,0l0,1l5,0l0,-1l2,0l0,-1l1,0l0,-2l1,0z" fill="#FFFF00" id="svg_4"/>
  <polyline fill="none" id="svg_5" points="1.02688 8.37634 1.56 7.76548" stroke-linecap="round"/>
  <polyline fill="none" id="svg_6" points="1.1881738901138306,7.892472674465864 1.7103067636489868,7.786574030281997 2.3350555896759033,7.7490315437316895 " stroke="#dd2c2c" stroke-linecap="round" transform="matrix(1 0 0 1 0 0)"/>
  <polyline fill="none" id="svg_7" points="2.07527 7.48925 1.43301 7.05462" stroke="#db3939" stroke-linecap="round" transform="matrix(1 0 0 1 0 0)"/>
  <line fill="none" id="svg_8" stroke="#e02828" x1="4.49" x2="11.59" y1="1.12" y2="2.81"/>
  <line fill="none" id="svg_9" x1="5.06" x2="8.61" y1="2.65" y2="1.84"/>
  <line fill="none" id="svg_10" stroke="#e02f2f" x1="5.3" x2="11.19" y1="2.97" y2="0.88"/>
  <line fill="none" id="svg_12" stroke="#e02626" x1="4.9" x2="5.95" y1="1.44" y2="2.49"/>
  <line fill="none" id="svg_13" stroke="#e02c2c" x1="10.7" x2="11.11" y1="1.28" y2="2.49"/>
  <line fill="none" id="svg_14" stroke="#e02c2c" x1="10.06" x2="10.46" y1="1.2" y2="2.41"/>
  <line fill="none" id="svg_15" stroke="#e02f2f" x1="21.11" x2="26.99" y1="2.97" y2="0.88"/>
  <line fill="none" id="svg_17" stroke="#e02828" x1="20.54" x2="27.64" y1="1.04" y2="2.73"/>
  <line fill="none" id="svg_18" stroke="#e02626" x1="20.87" x2="21.91" y1="1.36" y2="2.41"/>
  <line fill="none" id="svg_19" stroke="#e02c2c" x1="26.51" x2="26.91" y1="1.2" y2="2.41"/>
  <line fill="none" id="svg_20" stroke="#e02c2c" x1="25.95" x2="26.35" y1="1.04" y2="2.25"/>
  <line fill="none" id="svg_21" stroke="#e02c2c" x1="18.04" x2="20.06" y1="4.83" y2="5.63"/>
  <line fill="none" id="svg_22" stroke="#e02c2c" x1="18.12" x2="20.06" y1="10.07" y2="9.26"/>
  <line fill="none" id="svg_23" stroke="#e02c2c" x1="36.99" x2="37.8" y1="1.36" y2="3.62"/>
  <line fill="none" id="svg_24" stroke="#e02c2c" transform="matrix(1 0 0 1 0 0)" x1="36.91" x2="38.2" y1="13.05" y2="11.36"/>
  <line fill="none" id="svg_26" stroke="#dd2525" x1="43.48" x2="46.54" y1="1.92" y2="6.84"/>
  <line fill="none" id="svg_27" stroke="#dd2525" x1="45.17" x2="45.49" y1="2.01" y2="7.25"/>
  <line fill="none" id="svg_28" stroke="#dd2525" x1="44.04" x2="44.93" y1="2.01" y2="2.65"/>
  <line fill="none" id="svg_29" stroke="#e02828" transform="matrix(1 0 0 1 0 0)" x1="52.64" x2="59.74" y1="1.12" y2="2.81"/>
  <line fill="none" id="svg_30" stroke="#e02f2f" transform="matrix(1 0 0 1 0 0)" x1="53.28" x2="59.17" y1="3.13" y2="1.04"/>
  <line fill="none" id="svg_31" stroke="#e02c2c" transform="matrix(1 0 0 1 0 0)" x1="58.37" x2="58.77" y1="1.28" y2="2.49"/>
  <line fill="none" id="svg_32" stroke="#e02c2c" transform="matrix(1 0 0 1 0 0)" x1="58.69" x2="59.09" y1="1.28" y2="2.49"/>
  <line fill="none" id="svg_33" stroke="#e02626" x1="52.88" x2="53.93" y1="1.52" y2="2.57"/>
  <line fill="none" id="svg_34" stroke="#e02626" x1="53.69" x2="54.74" y1="1.68" y2="2.73"/>
  <line fill="none" id="svg_35" stroke="#e02c2c" transform="matrix(1 0 0 1 0 0)" x1="50.06" x2="51.99" y1="9.99" y2="9.18"/>
  <line fill="none" id="svg_36" stroke="#e02c2c" x1="49.98" x2="51.99" y1="4.75" y2="5.55"/>
 </g>
</svg>

<svg width="64" height="16" viewBox="0 0 64 16" fill="none" xmlns="http://www.w3.org/2000/svg">
<path d="M5 2H3V3H2V5H1V10H2V12H3V13H5V14H10V13H12V12H13V10H14V5H13V3H12V2H10V1H5V2Z" fill="#FFFF00"/>
<path d="M30 10L30 5L29 5L29 3L28 3L28 2L26 2L26 1L21 1L21 2L19 2L19 3L18 3L18 5L20 5L20 6L23 6L23 7L26 7L26 8L23 8L23 9L20 9L20 10L18 10L18 12L19 12L19 13L21 13L21 14L26 14L26 13L28 13L28 12L29 12L29 10L30 10Z" fill="#FFFF00"/>
<path d="M46 10L46 5L45 5L45 3L44 3L44 2L42 2L42 1L37 1L37 3L38 3L38 4L39 4L39 5L40 5L40 6L41 6L41 7L42 7L42 8L41 8L41 9L40 9L40 10L39 10L39 11L38 11L38 12L37 12L37 14L42 14L42 13L44 13L44 12L45 12L45 10L46 10Z" fill="#FFFF00"/>
<path d="M62 10L62 5L61 5L61 3L60 3L60 2L58 2L58 1L53 1L53 2L51 2L51 3L50 3L50 5L52 5L52 6L55 6L55 7L58 7L58 8L55 8L55 9L52 9L52 10L50 10L50 12L51 12L51 13L53 13L53 14L58 14L58 13L60 13L60 12L61 12L61 10L62 10Z" fill="#FFFF00"/>
</svg>
